Themes/OneUI/assets/svg/sec_ic_32_system.svg

<?xml version="1.0" encoding="UTF-8" standalone="no"?>
<svg
   width="28.000021"
   height="28.000021"
   viewBox="0 0 28.000021 28.000021"
   fill="none"
   version="1.1"
   id="svg1884"
   sodipodi:docname="sec_ic_32_system.svg"
   xmlns:inkscape="http://www.inkscape.org/namespaces/inkscape"
   xmlns:sodipodi="http://sodipodi.sourceforge.net/DTD/sodipodi-0.dtd"
   xmlns="http://www.w3.org/2000/svg"
   xmlns:svg="http://www.w3.org/2000/svg">
  <sodipodi:namedview
     id="namedview1886"
     pagecolor="#ffffff"
     bordercolor="#666666"
     borderopacity="1.0"
     inkscape:showpageshadow="2"
     inkscape:pageopacity="0.0"
     inkscape:pagecheckerboard="0"
     inkscape:deskcolor="#d1d1d1" />
  <g
     clip-path="url(#clip0_1_1493)"
     id="g1877">
    <path
       d="M 24.856,3.14401 C 23.13,1.52161 20.7739,0.601214 18.1738,0.256914 15.6907,-0.072186 14,0.00881404 14,0.00881404 c 0,0 -1.691,-0.08100004 -4.17421,0.24809996 -2.6,0.3443 -4.956,1.264696 -6.6815,2.887096 -1.6228,1.7258 -2.543099,4.0819 -2.887599,6.6819 -0.3291004,2.48299 -0.2478004,4.17399 -0.2478004,4.17399 0,0 -0.0813,1.6908 0.2478004,4.174 0.3445,2.5998 1.264799,4.9561 2.887399,6.6819 1.7257,1.6226 4.0817,2.5428 6.6817,2.8875 C 12.309,28.0722 14,27.9912 14,27.9912 c 0,0 1.6907,0.081 4.1738,-0.2479 2.6001,-0.3447 4.9562,-1.2649 6.6818,-2.8875 1.623,-1.7258 2.5432,-4.0821 2.8877,-6.6819 0.3289,-2.4832 0.2479,-4.174 0.2479,-4.174 0,0 0.081,-1.691 -0.2479,-4.17399 -0.3445,-2.6 -1.2647,-4.9561 -2.8873,-6.6819 z"
       fill="#5d7e95"
       id="path1873" />
    <path
       d="M 20.9551,8.84871 17.8562,11.9475 16.0525,10.144 19.1516,7.04471 c -1.7854,-0.9995 -4.0842,-0.7439 -5.6035,0.7747 -1.2979,1.2974 -1.6714,3.16529 -1.1307,4.79529 l -5.3546,5.3554 c -0.8193,0.8193 -0.8198,2.1479 -3e-4,2.9672 0.8196,0.8197 2.1486,0.8195 2.9675,-3e-4 l 5.3551,-5.3546 c 1.6304,0.5409 3.4984,0.1674 4.796,-1.1302 1.5186,-1.5189 1.7737,-3.817 0.774,-5.60349 z"
       fill="#ffffff"
       id="path1875" />
  </g>
  <defs
     id="defs1882">
    <clipPath
       id="clip0_1_1493">
      <rect
         width="28"
         height="28"
         fill="#ffffff"
         id="rect1879"
         x="0"
         y="0" />
    </clipPath>
  </defs>
</svg>

<svg width="28" height="28" viewBox="0 0 28 28" fill="none" xmlns="http://www.w3.org/2000/svg">
<g clip-path="url(#clip0_1_1493)">
<path d="M24.856 3.14401C23.13 1.52161 20.7739 0.601214 18.1738 0.256914C15.6907 -0.072186 14 0.00881404 14 0.00881404C14 0.00881404 12.309 -0.072186 9.82579 0.256914C7.22579 0.601214 4.86979 1.52161 3.14429 3.14401C1.52149 4.86981 0.601191 7.22591 0.256691 9.82591C-0.0724094 12.3089 0.0088906 13.9999 0.0088906 13.9999C0.0088906 13.9999 -0.0724094 15.6907 0.256691 18.1739C0.601191 20.7737 1.52149 23.13 3.14409 24.8558C4.86979 26.4784 7.22579 27.3986 9.82579 27.7433C12.309 28.0722 14 27.9912 14 27.9912C14 27.9912 15.6907 28.0722 18.1738 27.7433C20.7739 27.3986 23.13 26.4784 24.8556 24.8558C26.4786 23.13 27.3988 20.7737 27.7433 18.1739C28.0722 15.6907 27.9912 13.9999 27.9912 13.9999C27.9912 13.9999 28.0722 12.3089 27.7433 9.82591C27.3988 7.22591 26.4786 4.86981 24.856 3.14401Z" fill="#5D7E95"/>
<path d="M20.9551 8.84871L17.8562 11.9475L16.0525 10.144L19.1516 7.04471C17.3662 6.04521 15.0674 6.30081 13.5481 7.81941C12.2502 9.11681 11.8767 10.9847 12.4174 12.6147L7.0628 17.9701C6.2435 18.7894 6.243 20.118 7.0625 20.9373C7.8821 21.757 9.2111 21.7568 10.03 20.937L15.3851 15.5824C17.0155 16.1233 18.8835 15.7498 20.1811 14.4522C21.6997 12.9333 21.9548 10.6352 20.9551 8.84871Z" fill="white"/>
</g>
<defs>
<clipPath id="clip0_1_1493">
<rect width="28" height="28" fill="white"/>
</clipPath>
</defs>
</svg>
